X:296
T: ICH ARMER HAS IM WEITEN FELD
N: E0169
O: Europa, Mitteleuropa, Deutschland, Hessen, Darmstadt; Baden
R: erzaehlendes Volks - Lied, Sage, Tier - Maerchen
M: 4/4
L: 1/16
K: F
C2 | F4A4G6B2 | A3Bc2d2c6
f2 | c2B2B2d2c4A4 | G4G4F4z2
C2 | F2G2A6B2 | A4G4z2
G2 | G2A2B6c2 | B4A4z2
G2 | F6A2G6B2 | A3Bc2d2c6
f2 | c2B2B2d2c4A4 | G4G4F4z2

